common/src/main/resources/icons/actions/traceOver.svg

<svg xmlns="http://www.w3.org/2000/svg" width="16" height="16" data-big="true" viewBox="0 0 24 24"><path fill="#C792EA" d="M12 14a2 2 0 0 1 2 2 2 2 0 0 1-2 2 2 2 0 0 1-2-2 2 2 0 0 1 2-2m11.46-5.14-1.59 6.89L15 14.16l3.8-2.38A7.97 7.97 0 0 0 12 8c-3.95 0-7.23 2.86-7.88 6.63l-1.97-.35C2.96 9.58 7.06 6 12 6c3.58 0 6.73 1.89 8.5 4.72z"/></svg>

<!--
  - The MIT License (MIT)
  -
  - Copyright (c) 2015-2024 Elior "Mallowigi" Boukhobza
  -
  - Permission is hereby granted, free of charge, to any person obtaining a copy
  - of this software and associated documentation files (the "Software"), to deal
  - in the Software without restriction, including without limitation the rights
  - to use, copy, modify, merge, publish, distribute, sublicense, and/or sell
  - copies of the Software, and to permit persons to whom the Software is
  - furnished to do so, subject to the following conditions:
  -
  - The above copyright notice and this permission notice shall be included in all
  - copies or substantial portions of the Software.
  -
  - THE SOFTWARE IS PROVIDED "AS IS", WITHOUT WARRANTY OF ANY KIND, EXPRESS OR
  - IMPLIED, INCLUDING BUT NOT LIMITED TO THE WARRANTIES OF MERCHANTABILITY,
  - FITNESS FOR A PARTICULAR PURPOSE AND NONINFRINGEMENT. IN NO EVENT SHALL THE
  - AUTHORS OR COPYRIGHT HOLDERS BE LIABLE FOR ANY CLAIM, DAMAGES OR OTHER
  - LIABILITY, WHETHER IN AN ACTION OF CONTRACT, TORT OR OTHERWISE, ARISING FROM,
  - OUT OF OR IN CONNECTION WITH THE SOFTWARE OR THE USE OR OTHER DEALINGS IN THE
  - SOFTWARE.
  -->


<svg data-big="true" xmlns="http://www.w3.org/2000/svg" version="1.1" width="16px" height="16px" viewBox="0 0 24 24">
  <path fill="#C792EA"
        d="M12,14A2,2 0 0,1 14,16A2,2 0 0,1 12,18A2,2 0 0,1 10,16A2,2 0 0,1 12,14M23.46,8.86L21.87,15.75L15,14.16L18.8,11.78C17.39,9.5 14.87,8 12,8C8.05,8 4.77,10.86 4.12,14.63L2.15,14.28C2.96,9.58 7.06,6 12,6C15.58,6 18.73,7.89 20.5,10.72L23.46,8.86Z"/>
</svg>
